svgs/duotone/cabin.svg

<svg xmlns="http://www.w3.org/2000/svg" viewBox="0 0 512 512"><!--! Font Awesome Pro 6.6.0 by @fontawesome - https://fontawesome.com License - https://fontawesome.com/license (Commercial License) Copyright 2024 Fonticons, Inc. --><defs><style>.fa-secondary{opacity:.4}</style></defs><path class="fa-secondary" d="M32 280c0-13.3 10.7-24 24-24l112 0c13.3 0 24 10.7 24 24l0 16c0 13.3-10.7 24-24 24L56 320c-13.3 0-24-10.7-24-24l0-16zm0 96c0-13.3 10.7-24 24-24l112 0c13.3 0 24 10.7 24 24l0 16c0 13.3-10.7 24-24 24L56 416c-13.3 0-24-10.7-24-24l0-16zm0 96c0-13.3 10.7-24 24-24l112 0c13.3 0 24 10.7 24 24l0 16c0 13.3-10.7 24-24 24L56 512c-13.3 0-24-10.7-24-24l0-16zM320 280c0-13.3 10.7-24 24-24l112 0c13.3 0 24 10.7 24 24l0 16c0 13.3-10.7 24-24 24l-112 0c-13.3 0-24-10.7-24-24l0-16zm0 96c0-13.3 10.7-24 24-24l112 0c13.3 0 24 10.7 24 24l0 16c0 13.3-10.7 24-24 24l-112 0c-13.3 0-24-10.7-24-24l0-16zm0 96c0-13.3 10.7-24 24-24l112 0c13.3 0 24 10.7 24 24l0 16c0 13.3-10.7 24-24 24l-112 0c-13.3 0-24-10.7-24-24l0-16z"/><path class="fa-primary" d="M237.4 6C248.5-2 263.5-2 274.6 6L384 84.1 384 64c0-17.7 14.3-32 32-32l32 0c17.7 0 32 14.3 32 32l0 88.7L498.6 166c11.3 8.1 16.1 22.6 11.9 35.8S493.9 224 480 224l-32 0-32 0L32 224c-13.9 0-26.2-9-30.5-22.2S2.1 174 13.4 166L237.4 6zM256 160a32 32 0 1 0 0-64 32 32 0 1 0 0 64z"/></svg>

<svg xmlns="http://www.w3.org/2000/svg" viewBox="0 0 512 512"><!--! Font Awesome Pro 6.4.0 by @fontawesome - https://fontawesome.com License - https://fontawesome.com/license (Commercial License) Copyright 2023 Fonticons, Inc. --><defs><style>.fa-secondary{opacity:.4}</style></defs><path class="fa-primary" d="M237.4 6C248.5-2 263.5-2 274.6 6L384 84.1V64c0-17.7 14.3-32 32-32h32c17.7 0 32 14.3 32 32v88.7L498.6 166c11.3 8.1 16.1 22.6 11.9 35.8S493.9 224 480 224H448 416 32c-13.9 0-26.2-9-30.5-22.2S2.1 174 13.4 166L237.4 6zM256 160a32 32 0 1 0 0-64 32 32 0 1 0 0 64z"/><path class="fa-secondary" d="M32 280c0-13.3 10.7-24 24-24H168c13.3 0 24 10.7 24 24v16c0 13.3-10.7 24-24 24H56c-13.3 0-24-10.7-24-24V280zm24 72H168c13.3 0 24 10.7 24 24v16c0 13.3-10.7 24-24 24H56c-13.3 0-24-10.7-24-24V376c0-13.3 10.7-24 24-24zm0 96H168c13.3 0 24 10.7 24 24v16c0 13.3-10.7 24-24 24H56c-13.3 0-24-10.7-24-24V472c0-13.3 10.7-24 24-24zM344 256H456c13.3 0 24 10.7 24 24v16c0 13.3-10.7 24-24 24H344c-13.3 0-24-10.7-24-24V280c0-13.3 10.7-24 24-24zM320 472c0-13.3 10.7-24 24-24H456c13.3 0 24 10.7 24 24v16c0 13.3-10.7 24-24 24H344c-13.3 0-24-10.7-24-24V472zm24-120H456c13.3 0 24 10.7 24 24v16c0 13.3-10.7 24-24 24H344c-13.3 0-24-10.7-24-24V376c0-13.3 10.7-24 24-24z"/></svg>
